Newaita-dark/actions/24/view-calendar-upcoming-days.svg

<?xml version="1.0" encoding="UTF-8"?>
<svg xmlns="http://www.w3.org/2000/svg" xmlns:xlink="http://www.w3.org/1999/xlink" width="24pt" height="24pt" viewBox="0 0 24 24" version="1.1">
<defs>
<filter id="alpha" filterUnits="objectBoundingBox" x="0%" y="0%" width="100%" height="100%">
  <feColorMatrix type="matrix" in="SourceGraphic" values="0 0 0 0 1 0 0 0 0 1 0 0 0 0 1 0 0 0 1 0"/>
</filter>
<mask id="mask0">
  <g filter="url(#alpha)">
<rect x="0" y="0" width="24" height="24" style="fill:rgb(0%,0%,0%);fill-opacity:0.988235;stroke:none;"/>
  </g>
</mask>
<clipPath id="clip1">
  <rect x="0" y="0" width="24" height="24"/>
</clipPath>
<g id="surface5" clip-path="url(#clip1)">
<path style=" stroke:none;fill-rule:nonzero;fill:rgb(74.117649%,74.117649%,74.117649%);fill-opacity:1;" d="M 0.992188 6.140625 L 0.992188 21.027344 C 0.992188 22.125 1.878906 23.011719 2.976562 23.011719 L 20.839844 23.011719 C 21.9375 23.011719 22.824219 22.125 22.824219 21.027344 L 22.824219 6.140625 L 21.335938 6.140625 L 21.335938 20.527344 C 21.335938 21.078125 20.890625 21.523438 20.339844 21.523438 L 3.472656 21.523438 C 2.921875 21.523438 2.480469 21.078125 2.480469 20.527344 L 2.480469 6.140625 Z M 0.992188 6.140625 "/>
</g>
<mask id="mask1">
  <g filter="url(#alpha)">
<rect x="0" y="0" width="24" height="24" style="fill:rgb(0%,0%,0%);fill-opacity:0.988235;stroke:none;"/>
  </g>
</mask>
<clipPath id="clip2">
  <rect x="0" y="0" width="24" height="24"/>
</clipPath>
<g id="surface8" clip-path="url(#clip2)">
<path style=" stroke:none;fill-rule:nonzero;fill:rgb(61.176473%,80.000001%,39.607844%);fill-opacity:1;" d="M 2.976562 1.179688 C 1.878906 1.179688 0.992188 2.066406 0.992188 3.164062 L 0.992188 6.140625 L 22.824219 6.140625 L 22.824219 3.164062 C 22.824219 2.066406 21.9375 1.179688 20.839844 1.179688 Z M 4.464844 2.171875 C 5.289062 2.171875 5.953125 2.835938 5.953125 3.660156 C 5.953125 4.484375 5.289062 5.148438 4.464844 5.148438 C 3.640625 5.148438 2.976562 4.484375 2.976562 3.660156 C 2.976562 2.835938 3.640625 2.171875 4.464844 2.171875 Z M 19.347656 2.171875 C 20.175781 2.171875 20.839844 2.835938 20.839844 3.660156 C 20.839844 4.484375 20.175781 5.148438 19.347656 5.148438 C 18.523438 5.148438 17.859375 4.484375 17.859375 3.660156 C 17.859375 2.835938 18.523438 2.171875 19.347656 2.171875 Z M 19.347656 2.171875 "/>
</g>
</defs>
<g id="surface1">
<use xlink:href="#surface5" mask="url(#mask0)"/>
<use xlink:href="#surface8" mask="url(#mask1)"/>
<path style=" stroke:none;fill-rule:nonzero;fill:rgb(74.117649%,74.117649%,74.117649%);fill-opacity:1;" d="M 4.464844 8.125 L 5.953125 8.125 C 6.226562 8.125 6.449219 8.347656 6.449219 8.621094 L 6.449219 10.109375 C 6.449219 10.382812 6.226562 10.605469 5.953125 10.605469 L 4.464844 10.605469 C 4.191406 10.605469 3.96875 10.382812 3.96875 10.109375 L 3.96875 8.621094 C 3.96875 8.347656 4.191406 8.125 4.464844 8.125 Z M 4.464844 8.125 "/>
<path style=" stroke:none;fill-rule:nonzero;fill:rgb(74.117649%,74.117649%,74.117649%);fill-opacity:1;" d="M 8.929688 8.125 L 10.417969 8.125 C 10.691406 8.125 10.914062 8.347656 10.914062 8.621094 L 10.914062 10.109375 C 10.914062 10.382812 10.691406 10.605469 10.417969 10.605469 L 8.929688 10.605469 C 8.65625 10.605469 8.433594 10.382812 8.433594 10.109375 L 8.433594 8.621094 C 8.433594 8.347656 8.65625 8.125 8.929688 8.125 Z M 8.929688 8.125 "/>
<path style=" stroke:none;fill-rule:nonzero;fill:rgb(74.117649%,74.117649%,74.117649%);fill-opacity:1;" d="M 13.394531 8.125 L 14.882812 8.125 C 15.160156 8.125 15.378906 8.347656 15.378906 8.621094 L 15.378906 10.109375 C 15.378906 10.382812 15.160156 10.605469 14.882812 10.605469 L 13.394531 10.605469 C 13.121094 10.605469 12.898438 10.382812 12.898438 10.109375 L 12.898438 8.621094 C 12.898438 8.347656 13.121094 8.125 13.394531 8.125 Z M 13.394531 8.125 "/>
<path style=" stroke:none;fill-rule:nonzero;fill:rgb(74.117649%,74.117649%,74.117649%);fill-opacity:1;" d="M 17.859375 8.125 L 19.347656 8.125 C 19.625 8.125 19.84375 8.347656 19.84375 8.621094 L 19.84375 10.109375 C 19.84375 10.382812 19.625 10.605469 19.347656 10.605469 L 17.859375 10.605469 C 17.585938 10.605469 17.363281 10.382812 17.363281 10.109375 L 17.363281 8.621094 C 17.363281 8.347656 17.585938 8.125 17.859375 8.125 Z M 17.859375 8.125 "/>
<path style=" stroke:none;fill-rule:nonzero;fill:rgb(74.117649%,74.117649%,74.117649%);fill-opacity:1;" d="M 4.464844 12.589844 L 5.953125 12.589844 C 6.226562 12.589844 6.449219 12.8125 6.449219 13.085938 L 6.449219 14.574219 C 6.449219 14.851562 6.226562 15.070312 5.953125 15.070312 L 4.464844 15.070312 C 4.191406 15.070312 3.96875 14.851562 3.96875 14.574219 L 3.96875 13.085938 C 3.96875 12.8125 4.191406 12.589844 4.464844 12.589844 Z M 4.464844 12.589844 "/>
<path style=" stroke:none;fill-rule:nonzero;fill:rgb(74.117649%,74.117649%,74.117649%);fill-opacity:1;" d="M 8.929688 12.589844 L 10.417969 12.589844 C 10.691406 12.589844 10.914062 12.8125 10.914062 13.085938 L 10.914062 14.574219 C 10.914062 14.851562 10.691406 15.070312 10.417969 15.070312 L 8.929688 15.070312 C 8.65625 15.070312 8.433594 14.851562 8.433594 14.574219 L 8.433594 13.085938 C 8.433594 12.8125 8.65625 12.589844 8.929688 12.589844 Z M 8.929688 12.589844 "/>
<path style=" stroke:none;fill-rule:nonzero;fill:rgb(93.725491%,32.549021%,31.37255%);fill-opacity:1;" d="M 13.394531 12.589844 L 14.882812 12.589844 C 15.160156 12.589844 15.378906 12.8125 15.378906 13.085938 L 15.378906 14.574219 C 15.378906 14.851562 15.160156 15.070312 14.882812 15.070312 L 13.394531 15.070312 C 13.121094 15.070312 12.898438 14.851562 12.898438 14.574219 L 12.898438 13.085938 C 12.898438 12.8125 13.121094 12.589844 13.394531 12.589844 Z M 13.394531 12.589844 "/>
<path style=" stroke:none;fill-rule:nonzero;fill:rgb(93.725491%,32.549021%,31.37255%);fill-opacity:1;" d="M 17.859375 12.589844 L 19.347656 12.589844 C 19.625 12.589844 19.84375 12.8125 19.84375 13.085938 L 19.84375 14.574219 C 19.84375 14.851562 19.625 15.070312 19.347656 15.070312 L 17.859375 15.070312 C 17.585938 15.070312 17.363281 14.851562 17.363281 14.574219 L 17.363281 13.085938 C 17.363281 12.8125 17.585938 12.589844 17.859375 12.589844 Z M 17.859375 12.589844 "/>
<path style=" stroke:none;fill-rule:nonzero;fill:rgb(93.725491%,32.549021%,31.37255%);fill-opacity:1;" d="M 4.464844 17.054688 L 5.953125 17.054688 C 6.226562 17.054688 6.449219 17.277344 6.449219 17.550781 L 6.449219 19.039062 C 6.449219 19.316406 6.226562 19.535156 5.953125 19.535156 L 4.464844 19.535156 C 4.191406 19.535156 3.96875 19.316406 3.96875 19.039062 L 3.96875 17.550781 C 3.96875 17.277344 4.191406 17.054688 4.464844 17.054688 Z M 4.464844 17.054688 "/>
<path style=" stroke:none;fill-rule:nonzero;fill:rgb(74.117649%,74.117649%,74.117649%);fill-opacity:1;" d="M 8.929688 17.054688 L 10.417969 17.054688 C 10.691406 17.054688 10.914062 17.277344 10.914062 17.550781 L 10.914062 19.039062 C 10.914062 19.316406 10.691406 19.535156 10.417969 19.535156 L 8.929688 19.535156 C 8.65625 19.535156 8.433594 19.316406 8.433594 19.039062 L 8.433594 17.550781 C 8.433594 17.277344 8.65625 17.054688 8.929688 17.054688 Z M 8.929688 17.054688 "/>
<path style=" stroke:none;fill-rule:nonzero;fill:rgb(74.117649%,74.117649%,74.117649%);fill-opacity:1;" d="M 13.394531 17.054688 L 14.882812 17.054688 C 15.160156 17.054688 15.378906 17.277344 15.378906 17.550781 L 15.378906 19.039062 C 15.378906 19.316406 15.160156 19.535156 14.882812 19.535156 L 13.394531 19.535156 C 13.121094 19.535156 12.898438 19.316406 12.898438 19.039062 L 12.898438 17.550781 C 12.898438 17.277344 13.121094 17.054688 13.394531 17.054688 Z M 13.394531 17.054688 "/>
<path style=" stroke:none;fill-rule:nonzero;fill:rgb(74.117649%,74.117649%,74.117649%);fill-opacity:1;" d="M 17.859375 17.054688 L 19.347656 17.054688 C 19.625 17.054688 19.84375 17.277344 19.84375 17.550781 L 19.84375 19.039062 C 19.84375 19.316406 19.625 19.535156 19.347656 19.535156 L 17.859375 19.535156 C 17.585938 19.535156 17.363281 19.316406 17.363281 19.039062 L 17.363281 17.550781 C 17.363281 17.277344 17.585938 17.054688 17.859375 17.054688 Z M 17.859375 17.054688 "/>
</g>
</svg>

<svg xmlns="http://www.w3.org/2000/svg" xmlns:xlink="http://www.w3.org/1999/xlink" width="32" height="32" viewBox="0 0 24 24"><defs><filter id="a" filterUnits="objectBoundingBox" x="0%" y="0%" width="100%" height="100%"><feColorMatrix in="SourceGraphic" values="0 0 0 0 1 0 0 0 0 1 0 0 0 0 1 0 0 0 1 0"/></filter><mask id="e"><path fill-opacity=".988" d="M0 0h24v24H0z" filter="url(#a)"/></mask><clipPath id="b"><path d="M0 0h24v24H0z"/></clipPath><g id="d" clip-path="url(#b)"><path d="M.992 6.14v14.887c0 1.098.887 1.985 1.985 1.985H20.84a1.982 1.982 0 0 0 1.984-1.985V6.141h-1.488v14.386c0 .551-.445.996-.996.996H3.473a.992.992 0 0 1-.993-.996V6.141zm0 0" fill="#bdbdbd"/></g><mask id="g"><path fill-opacity=".988" d="M0 0h24v24H0z" filter="url(#a)"/></mask><clipPath id="c"><path d="M0 0h24v24H0z"/></clipPath><g id="f" clip-path="url(#c)"><path d="M2.977 1.18A1.982 1.982 0 0 0 .992 3.164v2.977h21.832V3.164A1.982 1.982 0 0 0 20.84 1.18zm1.488.992c.824 0 1.488.664 1.488 1.488S5.29 5.148 4.465 5.148A1.485 1.485 0 0 1 2.977 3.66c0-.824.664-1.488 1.488-1.488zm14.883 0c.828 0 1.492.664 1.492 1.488s-.664 1.488-1.492 1.488a1.485 1.485 0 0 1-1.489-1.488c0-.824.664-1.488 1.489-1.488zm0 0" fill="#9ccc65"/></g></defs><use xlink:href="#d" mask="url(#e)"/><use xlink:href="#f" mask="url(#g)"/><path d="M4.465 8.125h1.488c.274 0 .496.223.496.496v1.488a.497.497 0 0 1-.496.496H4.465a.497.497 0 0 1-.496-.496V8.621c0-.273.222-.496.496-.496zm0 0M8.93 8.125h1.488c.273 0 .496.223.496.496v1.488a.497.497 0 0 1-.496.496H8.93a.497.497 0 0 1-.496-.496V8.621c0-.273.222-.496.496-.496zm0 0M13.395 8.125h1.488c.277 0 .496.223.496.496v1.488a.494.494 0 0 1-.496.496h-1.488a.497.497 0 0 1-.497-.496V8.621c0-.273.223-.496.497-.496zm0 0M17.86 8.125h1.488c.277 0 .496.223.496.496v1.488a.494.494 0 0 1-.496.496h-1.489a.497.497 0 0 1-.496-.496V8.621c0-.273.223-.496.496-.496zm0 0M4.465 12.59h1.488c.274 0 .496.223.496.496v1.488a.494.494 0 0 1-.496.496H4.465a.494.494 0 0 1-.496-.496v-1.488c0-.274.222-.496.496-.496zm0 0M8.93 12.59h1.488c.273 0 .496.223.496.496v1.488a.494.494 0 0 1-.496.496H8.93a.494.494 0 0 1-.496-.496v-1.488c0-.274.222-.496.496-.496zm0 0" fill="#bdbdbd"/><path d="M13.395 12.59h1.488c.277 0 .496.223.496.496v1.488a.492.492 0 0 1-.496.496h-1.488a.494.494 0 0 1-.497-.496v-1.488c0-.274.223-.496.497-.496zm0 0M17.86 12.59h1.488c.277 0 .496.223.496.496v1.488a.492.492 0 0 1-.496.496h-1.489a.494.494 0 0 1-.496-.496v-1.488c0-.274.223-.496.496-.496zm0 0M4.465 17.055h1.488c.274 0 .496.222.496.496v1.488a.494.494 0 0 1-.496.496H4.465a.494.494 0 0 1-.496-.496v-1.488c0-.274.222-.496.496-.496zm0 0" fill="#ef5350"/><path d="M8.93 17.055h1.488c.273 0 .496.222.496.496v1.488a.494.494 0 0 1-.496.496H8.93a.494.494 0 0 1-.496-.496v-1.488c0-.274.222-.496.496-.496zm0 0M13.395 17.055h1.488c.277 0 .496.222.496.496v1.488a.492.492 0 0 1-.496.496h-1.488a.494.494 0 0 1-.497-.496v-1.488c0-.274.223-.496.497-.496zm0 0M17.86 17.055h1.488c.277 0 .496.222.496.496v1.488a.492.492 0 0 1-.496.496h-1.489a.494.494 0 0 1-.496-.496v-1.488c0-.274.223-.496.496-.496zm0 0" fill="#bdbdbd"/></svg>
